X:2102
T:Drömde mik en dröm i nat
T:(tolkning Angul Hammerich, 1921)
R:Visa
O:Lund, Skåne
Z:Åke Persson, 2011-09-27
M:6/4
L:1/4
K:C
F2 A G2 A | F2 E D2 F | A A A A2 F | D3 z3 |
w:Dröm-de mik en|dröm i nat um|sil-ki ok är-lik|päl
F2 A G2 A | A2 E A3 | E F D F2 A | E3 z3 ||
"Omkväde" F2 A G2 A | F3 G2 E | D2 |]
(:musicend:)
Den danske musikhistorikern [[http://da.wikipedia.org/wiki/Angul_Hammerich|Angul Hammerich]] menade att melodin med lika rätt kunde tolkas både som tvåtakt och som tretakt. Här "tretakt"-varianten. Han tillfogade även ett fritt påhittat omkväde.

(:music:)
